packages/kaspersky-hexa-ui-icons/src/iconsSVGs/16/ShieldWarningSolid.svg

<svg width="16" height="16" viewBox="0 0 16 16" fill="none" xmlns="http://www.w3.org/2000/svg">
<path fill-rule="evenodd" clip-rule="evenodd" d="M8.93538 1.3516C8.3577 1.05174 7.67024 1.05174 7.09256 1.3516L2.87255 3.54211C2.5412 3.7141 2.33325 4.05634 2.33325 4.42966V7.4516C2.33325 8.4039 2.42375 9.48655 2.88237 10.5007C3.69562 12.299 4.89249 13.4125 5.89287 14.0747C6.39145 14.4047 6.84178 14.6232 7.17411 14.7612C7.34056 14.8302 7.47834 14.8795 7.57899 14.9126C7.72013 14.9591 7.86535 14.9999 8.01397 14.9999C8.19115 14.9999 8.22869 14.9893 8.47907 14.8974C8.57668 14.8615 8.71079 14.8088 8.87315 14.7361C9.1973 14.591 9.63766 14.3649 10.1264 14.0329C11.1048 13.3685 12.2885 12.2717 13.1059 10.5496C13.5995 9.50985 13.6947 8.3898 13.6947 7.40979V4.42966C13.6947 4.05634 13.4867 3.7141 13.1554 3.54211L8.93538 1.3516ZM7.99992 4.68335C8.3589 4.68335 8.64992 4.97437 8.64992 5.33335V8.00002C8.64992 8.359 8.3589 8.65002 7.99992 8.65002C7.64093 8.65002 7.34992 8.359 7.34992 8.00002V5.33335C7.34992 4.97437 7.64093 4.68335 7.99992 4.68335ZM7.99991 10.6568C8.3589 10.6568 8.64991 10.3658 8.64991 10.0068C8.64991 9.6478 8.3589 9.35679 7.99991 9.35679C7.64093 9.35679 7.34991 9.6478 7.34991 10.0068C7.34991 10.3658 7.64093 10.6568 7.99991 10.6568Z" fill="black"/>
</svg>

<svg xmlns="http://www.w3.org/2000/svg" width="16" height="16" fill="none" viewBox="0 0 16 16"><path fill="#000" fill-rule="evenodd" d="M8.9354 1.3516a2 2 0 0 0-1.8428 0l-4.22 2.1905a1 1 0 0 0-.5393.8876v3.0219c0 .9523.0905 2.035.549 3.0491.8133 1.7983 2.0102 2.9118 3.0106 3.574.4985.33.9489.5485 1.2812.6865.1665.069.3042.1183.4049.1514.1411.0465.2864.0873.435.0873.1772 0 .2147-.0106.465-.1025a6.2 6.2 0 0 0 .3942-.1613c.3241-.1451.7645-.3712 1.2532-.7032.9784-.6644 2.1621-1.7612 2.9795-3.4833.4936-1.0397.5888-2.1598.5888-3.1398V4.4297a1 1 0 0 0-.5393-.8876zm-.9355 3.3318a.65.65 0 0 1 .65.65V8a.65.65 0 0 1-1.3 0V5.3334a.65.65 0 0 1 .65-.65m0 5.9734a.65.65 0 1 0 0-1.3.65.65 0 0 0 0 1.3"/></svg>
